packages/ffe-icons/icons/open/400/lg/stroke_full.svg

<svg xmlns="http://www.w3.org/2000/svg" height="40" viewBox="0 -960 960 960" width="40"><path d="M456.999-80q-82.333 0-155.333-31.5t-127.333-85.833q-54.334-54.334-85.834-127.334T57-480q0-83 31.5-156t85.834-127q54.333-54 127.333-85.5T456.999-880q83 0 156 31.5t127 85.5q54 54 85.5 127t31.5 156q0 82.333-31.5 155.333t-85.5 127.334q-54 54.333-127 85.833t-156 31.5Zm61.666-72.999q101.334-18.334 174.168-91.167Q765.667-317 784-418.334L518.665-152.999Zm-387.666-391L393-806.001q-100.334 19-171.668 90.334-71.333 71.334-90.333 171.668Zm8 163.333L557-797.667q-15.333-5-31-8.333-15.667-3.334-32-5.334L125.666-443q2 16.334 5.166 31.667 3.167 15.333 8.167 30.667Zm59.667 111.333 469.001-469.334Q657-747.334 645.833-755q-11.167-7.667-23.5-14.667l-455.001 455q7 12.334 14.667 23.501 7.667 11.166 16.667 21.833Zm93 79L746.333-646q-7-12.334-14.667-23.167Q724-680 715.333-690.667L246.999-221.333q10.667 8.667 21.5 16.333 10.834 7.667 23.167 14.667Zm128.333 41.667L788.333-517q-2-16.334-5.333-32-3.334-15.667-8.334-31.001L356.999-162.333q15.333 5 31 8.333 15.667 3.334 32 5.334Z"/></svg>

<svg xmlns="http://www.w3.org/2000/svg" viewBox="0 -960 960 960" width="32" height="32"><path d="M457-80q-82.33 0-155.33-31.5-73-31.5-127.34-85.83Q120-251.67 88.5-324.67T57-480q0-83 31.5-156t85.83-127q54.34-54 127.34-85.5T457-880q83 0 156 31.5T740-763q54 54 85.5 127T857-480q0 82.33-31.5 155.33-31.5 73-85.5 127.34Q686-143 613-111.5T457-80Zm61.67-73Q620-171.33 692.83-244.17 765.67-317 784-418.33L518.67-153ZM131-544l262-262q-100.33 19-171.67 90.33Q150-644.33 131-544Zm8 163.33 418-417q-15.33-5-31-8.33t-32-5.33L125.67-443q2 16.33 5.16 31.67Q134-396 139-380.67Zm59.67 111.34 469-469.34Q657-747.33 645.83-755q-11.16-7.67-23.5-14.67l-455 455q7 12.34 14.67 23.5 7.67 11.17 16.67 21.84Zm93 79L746.33-646q-7-12.33-14.66-23.17-7.67-10.83-16.34-21.5L247-221.33q10.67 8.66 21.5 16.33 10.83 7.67 23.17 14.67ZM420-148.67 788.33-517q-2-16.33-5.33-32-3.33-15.67-8.33-31L357-162.33q15.33 5 31 8.33t32 5.33Z"/></svg>
